build/fonts/cisco/minivax.svg

<?xml version="1.0" encoding="UTF-8" standalone="no"?>
<svg
   xmlns:dc="http://purl.org/dc/elements/1.1/"
   xmlns:cc="http://creativecommons.org/ns#"
   xmlns:rdf="http://www.w3.org/1999/02/22-rdf-syntax-ns#"
   xmlns:svg="http://www.w3.org/2000/svg"
   xmlns="http://www.w3.org/2000/svg"
   viewBox="0 0 30 28.75"
   height="28.75"
   width="30"
   xml:space="preserve"
   version="1.1"
   id="svg2"><metadata
     id="metadata8"><rdf:RDF><cc:Work
         rdf:about=""><dc:format>image/svg+xml</dc:format><dc:type
           rdf:resource="http://purl.org/dc/dcmitype/StillImage" /></cc:Work></rdf:RDF></metadata><defs
     id="defs6"><clipPath
       id="clipPath18"
       clipPathUnits="userSpaceOnUse"><path
         id="path20"
         d="M 0,10 0,227 240,227 240,10 0,10 Z" /></clipPath></defs><g
     transform="matrix(1.25,0,0,-1.25,0,28.75)"
     id="g10"><g
       transform="scale(0.1,0.1)"
       id="g12"><g
         id="g14"><g
           clip-path="url(#clipPath18)"
           id="g16"><path
             id="path22"
             style="fill:#02709f;fill-opacity:1;fill-rule:nonzero;stroke:none"
             d="m 4.83984,14.8438 203.16,0 0,177.621 -203.16,0 0,-177.621 z" /><path
             id="path24"
             style="fill:none;stroke:#ffffff;stroke-width:3.99993992;stroke-linecap:butt;stroke-linejoin:miter;stroke-miterlimit:4;stroke-dasharray:none;stroke-opacity:1"
             d="m 4.83984,14.8438 203.16,0 0,177.621 -203.16,0 0,-177.621 z" /><path
             id="path26"
             style="fill:#02709f;fill-opacity:1;fill-rule:nonzero;stroke:none"
             d="m 208.012,14.8438 32.929,32.8906 0,177.6606 -203.2105,0 -32.89066,-32.93 203.17216,0 0,-177.6212" /><path
             id="path28"
             style="fill:none;stroke:#ffffff;stroke-width:3.99993992;stroke-linecap:butt;stroke-linejoin:miter;stroke-miterlimit:4;stroke-dasharray:none;stroke-opacity:1"
             d="m 208.012,14.8438 32.929,32.8906 0,177.6606 -203.2105,0 -32.89066,-32.93 203.17216,0 0,-177.6212 z" /><path
             id="path30"
             style="fill:#02709f;fill-opacity:1;fill-rule:nonzero;stroke:none"
             d="m 208.012,192.465 32.929,32.93" /><path
             id="path32"
             style="fill:none;stroke:#ffffff;stroke-width:3.99993992;stroke-linecap:butt;stroke-linejoin:miter;stroke-miterlimit:4;stroke-dasharray:none;stroke-opacity:1"
             d="m 208.012,192.465 32.929,32.93" /><path
             id="path34"
             style="fill:none;stroke:#ffffff;stroke-width:3.99993992;stroke-linecap:butt;stroke-linejoin:miter;stroke-miterlimit:4;stroke-dasharray:none;stroke-opacity:1"
             d="m 142.93,14.8438 0,177.6212" /><path
             id="path36"
             style="fill:none;stroke:#ffffff;stroke-width:3.99993992;stroke-linecap:butt;stroke-linejoin:miter;stroke-miterlimit:4;stroke-dasharray:none;stroke-opacity:1"
             d="m 208.012,147.582 -203.17216,0" /><path
             id="path38"
             style="fill:none;stroke:#ffffff;stroke-width:3.99993992;stroke-linecap:butt;stroke-linejoin:miter;stroke-miterlimit:4;stroke-dasharray:none;stroke-opacity:1"
             d="m 73.9102,14.8438 0,177.6212" /></g></g></g></g></svg>

<svg xmlns="http://www.w3.org/2000/svg" viewBox="0 0 30 28.75" height="28.75" width="30"><defs><clipPath id="a"><path d="M0 10v217h240V10H0z"/></clipPath></defs><g clip-path="url(#a)" transform="matrix(.13 0 0 -.13 0 28.75)"><path d="M4.84 14.844H208v177.62H4.84V14.845z" fill="#02709f"/><path d="M4.84 14.844H208v177.62H4.84V14.845z" fill="none" stroke="#fff" stroke-width="4"/><path d="M208.012 14.844l32.929 32.89v177.661H37.731L4.84 192.465h203.172V14.844" fill="#02709f"/><path d="M208.012 14.844l32.929 32.89v177.661H37.731L4.84 192.465h203.172V14.844z" fill="none" stroke="#fff" stroke-width="4"/><path d="M208.012 192.465l32.929 32.93" fill="#02709f"/><path d="M208.012 192.465l32.929 32.93M142.93 14.844v177.621M208.012 147.582H4.84M73.91 14.844v177.621" fill="none" stroke="#fff" stroke-width="4"/></g></svg>
